packages/tokens/icons/select/size32Px.svg

<svg viewBox="0 0 32 32" fill="none" xmlns="http://www.w3.org/2000/svg" width="1em" height="1em"><rect x="4.5" y="4.5" width="4" height="4" rx="0.5" stroke="currentColor" stroke-linecap="round" stroke-linejoin="round"/><rect x="4.5" y="23.5" width="4" height="4" rx="0.5" stroke="currentColor" stroke-linecap="round" stroke-linejoin="round"/><rect x="23.5" y="4.5" width="4" height="4" rx="0.5" stroke="currentColor" stroke-linecap="round" stroke-linejoin="round"/><path d="M10.5 6.5H8.5" stroke="currentColor" stroke-linecap="round" stroke-linejoin="round"/><path d="M13.5 6.5H12.5" stroke="currentColor" stroke-linecap="round" stroke-linejoin="round"/><path d="M16.5 6.5H15.5" stroke="currentColor" stroke-linecap="round" stroke-linejoin="round"/><path d="M19.5 6.5H18.5" stroke="currentColor" stroke-linecap="round" stroke-linejoin="round"/><path d="M23.5 6.5H21.5" stroke="currentColor" stroke-linecap="round" stroke-linejoin="round"/><path d="M10.5 25.5H8.5" stroke="currentColor" stroke-linecap="round" stroke-linejoin="round"/><path d="M13.5 25.5H12.5" stroke="currentColor" stroke-linecap="round" stroke-linejoin="round"/><path d="M6.5 10.5L6.5 8.5" stroke="currentColor" stroke-linecap="round" stroke-linejoin="round"/><path d="M6.5 13.5L6.5 12.5" stroke="currentColor" stroke-linecap="round" stroke-linejoin="round"/><path d="M6.5 16.5L6.5 15.5" stroke="currentColor" stroke-linecap="round" stroke-linejoin="round"/><path d="M6.5 19.5L6.5 18.5" stroke="currentColor" stroke-linecap="round" stroke-linejoin="round"/><path d="M6.5 23.5L6.5 21.5" stroke="currentColor" stroke-linecap="round" stroke-linejoin="round"/><path d="M25.5 10.5L25.5 8.5" stroke="currentColor" stroke-linecap="round" stroke-linejoin="round"/><path d="M25.5 13.5L25.5 12.5" stroke="currentColor" stroke-linecap="round" stroke-linejoin="round"/><path d="M16 16L20.6667 30L23.5833 23.5833L30 20.6667L16 16Z" stroke="currentColor" stroke-linecap="round" stroke-linejoin="round"/></svg>

<svg xmlns="http://www.w3.org/2000/svg" fill="none" viewBox="0 0 32 32" width="1em" height="1em"><rect width="4" height="4" x="4.5" y="4.5" stroke="currentColor" stroke-linecap="round" stroke-linejoin="round" rx=".5"/><rect width="4" height="4" x="4.5" y="23.5" stroke="currentColor" stroke-linecap="round" stroke-linejoin="round" rx=".5"/><rect width="4" height="4" x="23.5" y="4.5" stroke="currentColor" stroke-linecap="round" stroke-linejoin="round" rx=".5"/><path stroke="currentColor" stroke-linecap="round" stroke-linejoin="round" d="M10.5 6.5h-2m5 0h-1m4 0h-1m4 0h-1m5 0h-2m-11 19h-2m5 0h-1m-6-15v-2m0 5v-1m0 4v-1m0 4v-1m0 5v-2m19-11v-2m0 5v-1M16 16l4.667 14 2.916-6.417L30 20.667 16 16Z"/></svg>
